apps/documenteditor/main/resources/img/toolbar/2.5x/huge/btn-none.svg

<svg width="40" height="40" viewBox="0 0 40 40" fill="none" xmlns="http://www.w3.org/2000/svg">
<path fill-rule="evenodd" clip-rule="evenodd" d="M32 9H9V32H32V9ZM9 8H8V9V32V33H9H32H33V32V9V8H32H9ZM19.7929 20.5L15.1464 15.8536L15.8536 15.1464L20.5 19.7929L25.1464 15.1464L25.8536 15.8536L21.2071 20.5L25.8536 25.1464L25.1464 25.8536L20.5 21.2071L15.8536 25.8536L15.1464 25.1464L19.7929 20.5Z" fill="black"/>
</svg>

<svg xmlns="http://www.w3.org/2000/svg" width="40" height="40" fill="none"><path fill="#000" d="M25.854 15.854 21.206 20.5l4.646 4.646-.707.707-4.646-4.646-4.646 4.646-.707-.707 4.646-4.646-4.646-4.646.707-.707 4.646 4.646 4.646-4.646.707.707Z"/><path fill="#000" d="M33 33H8V8h25v25ZM9 32h23V9H9v23Z"/></svg>
